assets/img/braze_icons/brush-02.svg

<svg fill="none" height="24" viewBox="0 0 24 24" width="24" xmlns="http://www.w3.org/2000/svg"><g fill="#801ed7"><path d="m6.86178 1.01695c.20815-.017007.45395-.016977.70633-.01695h8.86379c.2524-.000027.4982-.000057.7063.01695.2286.01868.4984.06274.7698.20104.3763.19175.6823.49771.874.87404.1383.27142.1824.54115.2011.76975.017.20816.0169.45396.0169.70634v3.83188c0 .56005 0 .84008-.109 1.05399-.0959.18816-.2488.34114-.437.43702-.2139.10899-.4939.10899-1.054.10899h-10.8c-.56005 0-.84007 0-1.05399-.10899-.18816-.09588-.34114-.24886-.43701-.43702-.109-.21391-.109-.49394-.109-1.05399v-3.83191c-.00003-.25237-.00006-.49816.01695-.70631.01868-.2286.06274-.49833.20104-.76976.19175-.37632.49771-.68228.87403-.87403.27143-.1383.54116-.18236.76976-.20104z"/><path d="m6.25446 11c-.21916 0-.32875 0-.42793.0203-.40134.0821-.74321.453-.79236.8597-.01214.1005-.00475.191.01002.3718.04593.5621.14449 1.0788.39178 1.5642.3835.7526.99542 1.3645 1.74807 1.748.41305.2105.84882.3132 1.31596.3675v3.5685c0 1.933 1.567 3.5 3.5 3.5s3.5-1.567 3.5-3.5v-3.5685c.4671-.0543.9029-.157 1.316-.3675.7526-.3835 1.3645-.9954 1.748-1.748.2473-.4854.3459-1.0021.3918-1.5642.0148-.1808.0222-.2713.01-.3718-.0491-.4067-.391-.7776-.7923-.8597-.0992-.0203-.2088-.0203-.428-.0203z"/></g></svg>

<svg width="24" height="24" viewBox="0 0 24 24" fill="none" xmlns="http://www.w3.org/2000/svg">
<path d="M6.86178 1.01695C7.06993 0.999943 7.31573 0.999973 7.56811 1L16.4319 1C16.6843 0.999973 16.9301 0.999943 17.1382 1.01695C17.3668 1.03563 17.6366 1.07969 17.908 1.21799C18.2843 1.40974 18.5903 1.7157 18.782 2.09203C18.9203 2.36345 18.9644 2.63318 18.9831 2.86178C19.0001 3.06994 19 3.31574 19 3.56812L19 7.4C19 7.96005 19 8.24008 18.891 8.45399C18.7951 8.64215 18.6422 8.79513 18.454 8.89101C18.2401 9 17.9601 9 17.4 9H6.6C6.03995 9 5.75993 9 5.54601 8.89101C5.35785 8.79513 5.20487 8.64215 5.109 8.45399C5 8.24008 5 7.96005 5 7.4L5 3.56809C4.99997 3.31572 4.99994 3.06993 5.01695 2.86178C5.03563 2.63318 5.07969 2.36345 5.21799 2.09202C5.40974 1.7157 5.7157 1.40974 6.09202 1.21799C6.36345 1.07969 6.63318 1.03563 6.86178 1.01695Z" fill="#801ED7"/>
<path d="M6.25446 11C6.0353 11 5.92571 11 5.82653 11.0203C5.42519 11.1024 5.08332 11.4733 5.03417 11.88C5.02203 11.9805 5.02942 12.071 5.04419 12.2518C5.09012 12.8139 5.18868 13.3306 5.43597 13.816C5.81947 14.5686 6.43139 15.1805 7.18404 15.564C7.59709 15.7745 8.03286 15.8772 8.5 15.9315V19.5C8.5 21.433 10.067 23 12 23C13.933 23 15.5 21.433 15.5 19.5V15.9315C15.9671 15.8772 16.4029 15.7745 16.816 15.564C17.5686 15.1805 18.1805 14.5686 18.564 13.816C18.8113 13.3306 18.9099 12.8139 18.9558 12.2518C18.9706 12.071 18.978 11.9805 18.9658 11.88C18.9167 11.4733 18.5748 11.1024 18.1735 11.0203C18.0743 11 17.9647 11 17.7455 11H6.25446Z" fill="#801ED7"/>
</svg>
